X: 743
T: Fasl-ı Güldür
C: Şivelioğlu Yorgaki
O: Turkey
F: http://compmusic.upf.edu/node/140
N: saba--sarki--agiraksak--fasl-i_guldur--sivelioglu_yorgaki
N: makam= saba
N: form= sarki
N: usul= agiraksak = 9/4
M: 9/4
L: 1/16
K: C _2/4B _3/4d  
Q: 1/4=66
%%MIDI tuningsystem comma53
z8 z2A4_1/4B2 c2_7/8d2 c2B2 c2d2 cBc2 d2e2  | \
w:   | 
f2f2 e2_7/8d2 c2_1/4B2 z2c4d2 c2BA B2c2 B3d c8 c4 d4 d2e2 d2c2 d8 e2f2 g2_a2  | 
w:   | 
g2f2 f3e e3_7/8d d3c c2d2 dc_1/4BA B2c2 B2c4B2  | \
w:   | 
e2_7/8dc c8 z2c4_a2 g2f2 e2d2 e2f2 g2f2  | 
w:   | 
e2_7/8d2 d2c4_1/4B2 z2c4d2 c2BA B2c2 B4 c4  | \
w:   | 
z4 _7/8d2cd e2dc c2_1/4Bc d2cB dcBA G4 z2cd e2dc  | 
w:   | 
c2_1/4B2 z8 z2A4B2 c2_7/8d2 c2B2 c2d2 cBc2  | \
w:   | 
_7/8d2e2 f2f2 e2d2 c2_1/4B2 z2c4d2 c2BA B2c2 B3d  | 
w:   | 
c8 c4 _7/8d4 d2e2 d2c2 d8 e2f2  | \
w:   | 
g2_a2 g2f2 f3e e3_7/8d d3c c2d2 dc_1/4BA B2c2 B2c4B2 e2dc c8 z2c4a2 g2f2 e2d2 e2f2  | 
w:   | 
g2f2 e2_7/8d2 d2c4_1/4B2 z2c4d2 c2BA B2c2 B4  | \
w:   | 
c4 z4 _7/8d2cd e2dc c2_1/4Bc d2cB dcBA G4 z2cd  | 
w:   | 
e2_7/8dc c2_1/4B2 B2c4BA A4 ^f2g2 a3g f2g2 a4  | \
w:   | 
g2c'2 _1/4baa8z2 a4 a2a2 c'2b2 a2a3g^f3e=d2 e2c2 _d2c_1/4B A4 A2A4a2 a3g fgab g2a4z2 a4 _b4 b2=d'2 c'2b2 a3g =f4 g2a2 b2c'2  | 
w:   | 
_b2a2 a2g2 f2e2 e3_7/8d c2d2 c3_1/4B ABcd B2c4B2  | \
w:   | 
e2_7/8dc c8 z2c4_a2 g2f2 e2d2 e2f2 g2f2  | 
w:   | 
e2_7/8d2 d2c4_1/4B2 z2c4d2 c2BA B2c2 B4 c4  | \
w:   | 
z4 _7/8d2cd e2dc c2_1/4Bc d2cB dcBA G4 z2de e2dc  | 
w:   | 
c2_1/4B2 c3B A2c'2 _1/4b3c' a3_b g3_a f3g e3f _7/8d2ef  | \
w:   | 
e_7/8dc_1/4B A3B c2d2 efg_a gfed c3B BcBA A4 de^fg  | 
w:   | 
a4 ^f2g4c'2 _1/4b3c' a3_b g3_a =f3g e3f _7/8d2ef  | \
w:   | 
e_7/8dc_1/4B A3B c2d2 efg_a gfed c3B BcBA A8  | 
w:   | 
z4 |


